usr/share/icons/big-icons/symbolic/actions/view-financial-category-delete.svg

<svg version="1.1" viewBox="0 0 16 16" xmlns="http://www.w3.org/2000/svg"><style type="text/css" id="current-color-scheme">.ColorScheme-Text { color:#eff0f1; }.ColorScheme-NegativeText { color: #da4453; }</style>
    <path d="m2 2v1h11v2h1v-3h-12zm0 2v10h4v-1h-3v-8h9v-1h-10zm2 2v1h2v-1h-2zm3 0v8h1v-7h5v1h1v-2h-7zm-3 3v1h1v-1h-1zm0 2v1h2v-1h-2z" fill="currentColor" class="ColorScheme-Text"/>
    <path d="m9 11v1h5v-1z" fill="currentColor" class="ColorScheme-NegativeText"/>
</svg>

<svg xmlns="http://www.w3.org/2000/svg" viewBox="0 0 16 16">
<style id="current-color-scheme" type="text/css">
.ColorScheme-Text{color:#fcfcfc}.ColorScheme-NegativeText{color:#da4453}
</style>
<path fill="currentColor" d="M2 2v1h11v2h1V2zm0 2v10h4v-1H3V5h9V4zm2 2v1h2V6zm3 0v8h1V7h5v1h1V6zM4 9v1h1V9zm0 2v1h2v-1z" class="ColorScheme-Text"/>
<path fill="currentColor" d="M9 11v1h5v-1z" class="ColorScheme-NegativeText"/>
</svg>
